X: 39445
T: Tarantella
R: jig
M: 6/8
K: Aminor
A2B|:cBc dcB|c2A ABc|B2B dcB|c2A EAB|
cBc dcB|c2A ABc|B2B dcB|1 A3 EAB:|2 A3 a2a||
|:e2e a2a|e2e ede|f2f fgf|e2e efe|
d2d ded|c2c cdc|B2B dcB|1 A3 a2a:|2 A3 EAB||

